X: 7139
T: Christy Barry's
R: jig
M: 6/8
K: Gmajor
M:12/8
|:D|G2 A BAG ABd e2 f|ged BAG ABG FED|
G2 A B2 G AB/c/d e3|ged B2 G AGF G2:|
d|g2 g gfg agf d2 e|ged B2 G AB/c/d e2 a|
g3 gbg agf d3|ged B2 G AGF GBd|
gb/a/g gfg agf d2 e|ged B2 G AB/A/G FF/E/D|
G2 A B2 G ABd e2 f|ged B3 AGF G2||

